!!!!SEGMENT:21Ushio_c.krn
!!!OTL: 潮
!!!OPR:Eiga Banso Kyokusyu,jidai-geki,kouhen
!!!YOY:1928
!!!ONB:Kojyouno_kengeki
**kern
*clefG2
*C:
*M2/4
=1
8B
8b
8b
8ee
=2
8ff#L
16ff#L
16ff#JJ
8ff#L
8ggJ
=3
8eeL
16ccL
16ccJJ
8ccL
16bL
16bJJ
=4
8bL
16aL
16aJJ
8aL
8bJ
=5
8eL
8aa
8aa
8eeJ
=6
16aaLL
16aa
16bb
16aaJJ
8eeL
8aaJ
=7
8bbL
16bbL
16bbJJ
8bbL
8cccJ
=8
8bbL
8ffn
8ee
8ccJ
=9
8bL
8a
8b
8ddJ
=10
8eeL
8aaJ
8bbL
8aaJ
=11
16bbLL
16bb
16bb
16aaJJ
4ff#
=12
8eeL
16eeL
16eeJJ
8eeL
8ff#J
=13
4gg
8ff#L
8ggJ
=14
16eeLL
16ee
16ff#
16eeJJ
8ccL
8bJ
=15
8aL
8b
8f#
8eJ
=16
8ddL
16eeL
16eeJJ
8bL
8ccJ
=17
8bL
16BL
16gJJ
8f#L
8gJ
=18||
*M3/4
8f#L
8e
8c
8e
8c
8BJ
=19||
*M2/4
8ccL
16ccL
16ccJJ
8ccL
16ccL
16ccJJ
=20
8ccL
16ccL
16ccJJ
4cc
=21!|:
8BL
8eeJ
8BL
8ddJ
=22
8bL
16eeL
16eeJJ
4b
=23:|
4gg
4gg
=24
8bbL
16ggL
16ggJJ
8ff#L
8ggJ
=25
16eeLL
16ee
16ff#
16eeJJ
8ccL
8bJ
=26
8bL
8aJ
8bL
8ddJ
=27
8eeL
16eeL
16eeJJ
4b
==
*-
!!!ENC: Yukiko Yoden
!!!END: 2023/06/11
